dist/assets/img/svg/pay-types-volunteer.svg

<svg width="23" height="21" viewBox="0 0 23 21"  xmlns="http://www.w3.org/2000/svg">
<path d="M0.726239 20.2497C0.588099 20.4888 0.669948 20.7946 0.909055 20.9327C1.14816 21.0709 1.45398 20.989 1.59212 20.7499L0.726239 20.2497ZM21.8165 20.7501C21.9547 20.9892 22.2605 21.0711 22.4996 20.9329C22.7387 20.7948 22.8206 20.489 22.6824 20.2499L21.8165 20.7501ZM18.161 7.4568C18.161 11.0228 15.2702 13.9136 11.7042 13.9136V14.9136C15.8225 14.9136 19.161 11.5751 19.161 7.4568H18.161ZM11.7042 13.9136C8.13826 13.9136 5.24745 11.0228 5.24745 7.4568H4.24745C4.24745 11.5751 7.58597 14.9136 11.7042 14.9136V13.9136ZM5.24745 7.4568C5.24745 3.89081 8.13826 1 11.7042 1V0C7.58597 0 4.24745 3.33852 4.24745 7.4568H5.24745ZM11.7042 1C15.2702 1 18.161 3.89081 18.161 7.4568H19.161C19.161 3.33852 15.8225 0 11.7042 0V1ZM1.59212 20.7499C2.61736 18.9753 4.09153 17.5018 5.86656 16.4773L5.36669 15.6112C3.43967 16.7234 1.83926 18.3231 0.726239 20.2497L1.59212 20.7499ZM5.86656 16.4773C7.64159 15.4529 9.6548 14.9136 11.7042 14.9136L11.7043 13.9136C9.47931 13.9136 7.2937 14.4991 5.36669 15.6112L5.86656 16.4773ZM11.7042 14.9136C13.7537 14.9136 15.7672 15.453 17.5422 16.4775L18.0421 15.6114C16.1151 14.4992 13.9292 13.9136 11.7043 13.9136L11.7042 14.9136ZM17.5422 16.4775C19.3172 17.502 20.7913 18.9755 21.8165 20.7501L22.6824 20.2499C21.5695 18.3233 19.9691 16.7236 18.0421 15.6114L17.5422 16.4775Z" />
</svg>

<svg width="23" height="21" fill="none" xmlns="http://www.w3.org/2000/svg"><path d="M.726 20.25a.5.5 0 10.866.5l-.866-.5zm21.09.5a.5.5 0 10.867-.5l-.866.5zM18.162 7.457a6.457 6.457 0 01-6.457 6.457v1a7.457 7.457 0 007.457-7.457h-1zm-6.457 6.457a6.457 6.457 0 01-6.456-6.457h-1a7.457 7.457 0 007.456 7.457v-1zM5.248 7.457A6.457 6.457 0 0111.704 1V0a7.457 7.457 0 00-7.456 7.457h1zM11.704 1a6.457 6.457 0 016.457 6.457h1A7.457 7.457 0 0011.704 0v1zM1.592 20.75a11.679 11.679 0 014.275-4.273l-.5-.866a12.678 12.678 0 00-4.64 4.639l.865.5zm4.275-4.273a11.679 11.679 0 015.837-1.563v-1c-2.224 0-4.41.585-6.337 1.697l.5.866zm5.837-1.563c2.05 0 4.063.539 5.838 1.563l.5-.866a12.679 12.679 0 00-6.338-1.697v1zm5.838 1.563a11.679 11.679 0 014.275 4.273l.866-.5a12.678 12.678 0 00-4.64-4.639l-.5.866z"/></svg>
